X:22
T:Woman of the House, The
M:C|
L:1/8
Q:120
R:Reel (Key of G)
K:G
"G"DBBA ~B3A | GB~B2 eBdB | "D"BAGB A2 Bd | "C"eB~B2 eBdB |
"G"DBBA ~B3A | GABd eBdB |GABG "D"A2GA | BGAG "G"EG~G2 :|:
"Bm"~f3d eB~B2 | "G"eBgB eB~B2 | "Bm"~f3d edBd | "D"eaag ~a3g |
"Bm"~f3d edBd | "G"~g3e dBBA | GABG "D"A2GA | BGAG "G"EG~G2 :|]
